X: 137
M: 6/8
L: 1/8
K: D
dcd edc | dcB A2d | cAd BGE | FGA D2A |\
dcd edc | dfd B2a | edc agf | cdB A2 :|
|: e |\
edc gfe | fdB g2f | edc dF=A | B3- B2d |\
d^Ac BAG | Bed c2d | BAG FdA | BGF E2D :|

